svgs/buffl.svg

<svg xmlns="http://www.w3.org/2000/svg" viewBox="0 0 192 192"><path d="M16 96V16l20 1.471c11 .808 28.64 3.872 39.2 6.808 25.633 7.126 53.097 6.91 79.269-.623L176 17.459V52.24l-15.2 4.584c-22.229 6.703-85.28 5.907-100.964-1.275l-12.164-5.57L48.636 67c.935 16.505 1.353 17.174 13.764 22.033 17.951 7.027 81.601 6.996 100-.05l13.6-5.209V97.93c0 12.344-1.126 14.622-8.8 17.8-32.431 13.434-78.053 12.908-113.6-1.31-5.094-2.037-5.6.641-5.6 29.67V176H16Z"/></svg>

<svg
    xmlns="http://www.w3.org/2000/svg"
    viewBox="0 0 192 192"
    id="vector">
    <path
        id="path"
        d="M 16 96 L 16 16 L 36 17.471 C 47 18.279 64.64 21.343 75.2 24.279 C 100.833 31.405 128.297 31.189 154.469 23.656 L 176 17.459 L 176 52.24 L 160.8 56.824 C 138.571 63.527 75.52 62.731 59.836 55.549 L 47.672 49.979 L 48.636 67 C 49.571 83.505 49.989 84.174 62.4 89.033 C 80.351 96.06 144.001 96.029 162.4 88.983 L 176 83.774 L 176 97.93 C 176 110.274 174.874 112.552 167.2 115.73 C 134.769 129.164 89.147 128.638 53.6 114.42 C 48.506 112.383 48 115.061 48 144.09 L 48 176 L 16 176 Z"
        fill="none"
        stroke="#000000"
        stroke-width="12"/>
</svg>
